X:1
T:Miss Gibson Craig
T:Miss Gibson Craig
T:William Marshall
C:William Marshall
%%score { ( 1 3 ) | ( 2 4 ) }
L:1/8
M:4/4
K:Eb
V:1 treble nm="Slowly"
V:3 treble 
V:2 bass 
V:4 bass 
V:1
 B, | E>F (E/D/)C/B,/ CF[DF]G | [G,E][EB][EG][Ge] [GB][Bg][Ge][gb] | E>F (E/D/)C/B,/ CF[DF]G | %4
 [G,B,]>E E/D/{D}C/B,/ [G,E]2 [G,E]B, | E>F (E/D/)C/B,/ CF[DF]G | %6
 [G,E][GB][EG][Ge] [GB][Bg][Ge][gb] | E>F (E/D/)C/B,/ C[CEF][DF]G | %8
 [G,B,]>E (E/D/){D}C/B,/ [G,E]2 [G,E] :| B | e>f (e/d/)c/B/ cffg | egce BeGE | e>f e/d/c/B/ cffg | %13
 (e/d/){d}c/B/ c[FBd] [EBe]2- [EBe]B | e>f (e/d/)c/B/ cffg | egce BeGE | %16
 A,[Ac]G,[GB] D[EF][DF][B,EG] | [G,B,]>[_G,E] E/D/{D}C/B,/ [G,E]2 [G,E] |] %18
V:2
 z | E,,E, A,,A, A,,A, B,,B, | E,,/E,/E,,/E,/ E,,/E,/E,,/E,/ E,,/E,/E,,/E,/ E,,/E,/E,,/E,/ | %3
 E,,E, G,,G, [A,,A,][=A,,=A,] [B,,B,]2 | B,,2 [B,,,F,A,]B,, E,,E,E,, z | E,,E, A,,A, A,,A, B,,B, | %6
 E,,/E,/E,,/E,/ E,,/E,/E,,/E,/ E,,/E,/E,,/E,/ E,,/E,/E,,/E,/ | %7
 E,,E, G,,G, [A,,A,][=A,,=A,] [B,,B,]2 | B,,2 [B,,,F,A,]B,, E,,E,E,, :| x | %10
 E,/E/G,/E/ B,/E/G,/E/ A,/F/C,/F/ A,/D/B,/D/ | G,/E/B,/E/ A,/E/C,/E/ G,/E/B,/E/ E,/B,/G,/B,/ | %12
 E,/E/G,/E/ B,/E/G,/E/ A,/F/C/F/ A,/D/B,/D/ | G,/E/B,/E/ A,/F,/B,/A,/ G,/E,/G,/B,/ E z | %14
 E,/E/G,/E/ B,/E/G,/E/ A,/F/C/F/ A,/D/B,/D/ | G,/E/B,/E/ A,/E/C,/E/ G,/E/B,/E/ E,/B,/G,/B,/ | %16
 [F,,F,]>[D,,D,] [E,,E,]>[G,,G,] [A,,A,]/[G,,G,]/[A,,A,]/[=A,,=A,]/ [B,,B,]/[_A,,_A,]/[G,,G,]/[F,,F,]/ | %17
 [E,,E,]>[_C,,_C,] [B,,,B,,F,A,]2 E,,E,E,, |] %18
V:3
 x | x8 | x8 | x4 C2 x2 | x8 | x4 C2 x2 | x8 | x8 | x7 :| x | x8 | x8 | x8 | x8 | x8 | x8 | x8 | %17
 x7 |] %18
V:4
 x | x8 | x8 | x8 | x8 | x8 | x8 | x8 | x7 :| x | E,4 x4 | x8 | E,4 x4 | x8 | E,4 x4 | x8 | x8 | %17
 x7 |] %18

